; generated by PrusaSlicer 2.3.1+win64 on 2021-06-06 at 15:26:27 UTC

; 

; external perimeters extrusion width = 0.45mm
; perimeters extrusion width = 0.45mm
; infill extrusion width = 0.45mm
; solid infill extrusion width = 0.45mm
; top infill extrusion width = 0.40mm
; first layer extrusion width = 0.42mm

M73 P0 R340
M73 Q0 S343
M201 X1000 Y1000 Z200 E5000 ; sets maximum accelerations, mm/sec^2
M203 X200 Y200 Z12 E120 ; sets maximum feedrates, mm/sec
M204 P1250 R1250 T1250 ; sets acceleration (P, T) and retract acceleration (R), mm/sec^2
M205 X8.00 Y8.00 Z0.40 E4.50 ; sets the jerk limits, mm/sec
M205 S0 T0 ; sets the minimum extruding and travel feed rate, mm/sec
M107
;TYPE:Custom
M862.3 P "MK3SMMU2S" ; printer model check
M862.1 P0.4 ; nozzle diameter check
M115 U3.9.3 ; tell printer latest fw version
G90 ; use absolute coordinates
M83 ; extruder relative mode
M104 S240 ; set extruder temp
M140 S85 ; set bed temp
Tx
M190 S85 ; wait for bed temp
M109 S240 ; wait for extruder temp
G28 W ; home all without mesh bed level
G80 ; mesh bed leveling

;go outside print area
G1 Y-3.0 F1000.0
G1 Z0.4 F1000.0
; select extruder
Tc
; purge line
G1 X55.0 F2000.0
G1 Z0.3 F1000.0
G92 E0.0
G1 X240.0 E25.0 F2200.0
G1 Y-2.0 F1000.0
G1 X55.0 E25 F1400.0
G1 Z0.20 F1000.0
G1 X5.0 E4.0 F1000.0

M221 S95
G92 E0.0

; Don't change E values below. Excessive value can damage the printer.
M907 E430 ; set extruder motor current
G21 ; set units to millimeters
G90 ; use absolute coordinates
M83 ; use relative distances for extrusion
M900 K0.08 ; Filament gcode LA 1.5
M900 K45 ; Filament gcode LA 1.0
;LAYER_CHANGE
;Z:0.2
;HEIGHT:0.2
;BEFORE_LAYER_CHANGE
G92 E0.0
;0.2


G1 E-1.40000 F2100.000
G1 Z0.200 F10800.000
;AFTER_LAYER_CHANGE
;0.2
G1 Z0.400
G1 X59.225 Y53.253
G1 Z0.200
G1 E1.40000 F2100.000
M204 S1000
;TYPE:Skirt
;WIDTH:0.42
G1 F1200.000
G1 X59.991 Y53.123 E0.02437
G1 X190.004 Y53.123 E4.07645
G1 X190.906 Y53.302 E0.02884
G1 X191.670 Y53.808 E0.02872
G1 X192.187 Y54.569 E0.02884
G1 X192.377 Y55.468 E0.02884
G1 X192.377 Y154.523 E3.10578
G1 X192.311 Y155.055 E0.01680
G1 X192.130 Y155.555 E0.01668
G1 X191.842 Y156.002 E0.01668
G1 X191.462 Y156.375 E0.01669
G1 X190.775 Y156.747 E0.02449
G1 X190.009 Y156.877 E0.02437
G1 X59.992 Y156.877 E4.07657
M73 P0 R339
M73 Q0 S342
G1 X59.460 Y156.815 E0.01680
G1 X58.955 Y156.635 E0.01680
G1 X58.503 Y156.347 E0.01680
G1 X58.125 Y155.962 E0.01692
G1 X57.754 Y155.279 E0.02437
G1 X57.623 Y154.513 E0.02437
G1 X57.623 Y55.489 E3.10483
G1 X57.686 Y54.956 E0.01680
G1 X57.867 Y54.452 E0.01680
G1 X58.156 Y54.000 E0.01680
G1 X58.538 Y53.625 E0.01680
G1 X59.172 Y53.281 E0.02261
; printing object wall-sensor-of-room-temperature-top-part.stl id:0 copy 0
;WIPE_START
G1 F8640.000
G1 X59.991 Y53.123 E-0.19265
G1 X64.917 Y53.123 E-1.13735
;WIPE_END
G1 E-0.07000 F2100.000
G1 Z0.400 F10800.000
G1 X117.713 Y121.313
G1 Z0.200
G1 E1.40000 F2100.000
;TYPE:Perimeter
G1 F1200.000
G1 X132.287 Y121.313 E0.45696
G1 X132.287 Y135.887 E0.45696
G1 X117.713 Y135.887 E0.45696
G1 X117.713 Y121.373 E0.45508
G1 X118.090 Y121.690 F10800.000
;TYPE:External perimeter
G1 F1200.000
G1 X131.910 Y121.690 E0.43332
G1 X131.910 Y135.510 E0.43332
G1 X118.090 Y135.510 E0.43332
G1 X118.090 Y121.750 E0.43144
G1 X117.986 Y121.304 F10800.000
;WIPE_START
G1 F8640.000
G1 X123.850 Y121.725 E-1.33000
;WIPE_END
G1 E-0.07000 F2100.000
G1 Z0.400 F10800.000
G1 X134.813 Y121.313
G1 Z0.200
G1 E1.40000 F2100.000
;TYPE:Perimeter
G1 F1200.000
G1 X149.387 Y121.313 E0.45696
G1 X149.387 Y135.887 E0.45696
G1 X134.813 Y135.887 E0.45696
G1 X134.813 Y121.373 E0.45508
G1 X135.190 Y121.690 F10800.000
;TYPE:External perimeter
G1 F1200.000
G1 X149.010 Y121.690 E0.43332
G1 X149.010 Y135.510 E0.43332
G1 X135.190 Y135.510 E0.43332
G1 X135.190 Y121.750 E0.43144
G1 X135.086 Y121.304 F10800.000
;WIPE_START
G1 F8640.000
G1 X140.950 Y121.725 E-1.33000
;WIPE_END
G1 E-0.07000 F2100.000
G1 Z0.400 F10800.000
G1 X100.513 Y121.313
G1 Z0.200
G1 E1.40000 F2100.000
;TYPE:Perimeter
G1 F1200.000
G1 X115.087 Y121.313 E0.45696
G1 X115.087 Y135.887 E0.45696
G1 X100.513 Y135.887 E0.45696
G1 X100.513 Y121.373 E0.45508
G1 X100.890 Y121.690 F10800.000
;TYPE:External perimeter
G1 F1200.000
G1 X114.710 Y121.690 E0.43332
G1 X114.710 Y135.510 E0.43332
G1 X100.890 Y135.510 E0.43332
G1 X100.890 Y121.750 E0.43144
G1 X100.786 Y121.304 F10800.000
;WIPE_START
G1 F8640.000
G1 X106.650 Y121.725 E-1.33000
;WIPE_END
G1 E-0.07000 F2100.000
G1 Z0.400 F10800.000
G1 X100.213 Y80.713
G1 Z0.200
G1 E1.40000 F2100.000
;TYPE:Perimeter
G1 F1200.000
G1 X149.787 Y80.713 E1.55436
G1 X149.787 Y118.287 E1.17811
G1 X100.213 Y118.287 E1.55436
G1 X100.213 Y80.773 E1.17623
G1 X100.590 Y81.090 F10800.000
;TYPE:External perimeter
G1 F1200.000
G1 X149.410 Y81.090 E1.53072
G1 X149.410 Y117.910 E1.15447
G1 X100.590 Y117.910 E1.53072
G1 X100.590 Y81.150 E1.15258
G1 X100.469 Y80.709 F10800.000
;WIPE_START
G1 F8640.000
G1 X106.350 Y81.143 E-1.33000
;WIPE_END
G1 E-0.07000 F2100.000
G1 Z0.400 F10800.000
G1 X60.787 Y56.287
G1 Z0.200
G1 E1.40000 F2100.000
;TYPE:Perimeter
G1 F1200.000
G1 X189.213 Y56.287 E4.02670
G1 X189.213 Y153.713 E3.05472
G1 X60.787 Y153.713 E4.02670
M73 P0 R338
M73 Q0 S341
G1 X60.787 Y56.347 E3.05284
G1 X60.410 Y55.910 F10800.000
;TYPE:External perimeter
G1 F1200.000
G1 X189.590 Y55.910 E4.05035
G1 X189.590 Y154.090 E3.07836
G1 X60.410 Y154.090 E4.05035
G1 X60.410 Y55.970 E3.07648
G1 X60.801 Y55.996 F10800.000
;WIPE_START
G1 F8640.000
G1 X66.170 Y55.967 E-1.33000
;WIPE_END
G1 E-0.07000 F2100.000
G1 Z0.400 F10800.000
G1 X188.336 Y56.400
G1 Z0.200
G1 E1.40000 F2100.000
;TYPE:Solid infill
;WIDTH:0.420727
G1 F1200.000
G1 X188.930 Y56.994 E0.02640
G1 X188.930 Y57.529 E0.01678
G1 X187.971 Y56.570 E0.04259
G1 X187.437 Y56.570 E0.01678
G1 X188.930 Y58.063 E0.06633
G1 X188.930 Y58.597 E0.01678
G1 X186.903 Y56.570 E0.09007
G1 X186.368 Y56.570 E0.01678
G1 X188.930 Y59.132 E0.11381
G1 X188.930 Y59.666 E0.01678
G1 X185.834 Y56.570 E0.13754
G1 X185.300 Y56.570 E0.01678
G1 X188.930 Y60.200 E0.16128
G1 X188.930 Y60.734 E0.01678
G1 X184.766 Y56.570 E0.18502
G1 X184.231 Y56.570 E0.01678
G1 X188.930 Y61.269 E0.20876
G1 X188.930 Y61.803 E0.01678
G1 X183.697 Y56.570 E0.23249
G1 X183.163 Y56.570 E0.01678
G1 X188.930 Y62.337 E0.25623
G1 X188.930 Y62.872 E0.01678
G1 X182.628 Y56.570 E0.27997
G1 X182.094 Y56.570 E0.01678
G1 X188.930 Y63.406 E0.30371
G1 X188.930 Y63.940 E0.01678
G1 X181.560 Y56.570 E0.32744
G1 X181.025 Y56.570 E0.01678
G1 X188.930 Y64.475 E0.35118
G1 X188.930 Y65.009 E0.01678
G1 X180.491 Y56.570 E0.37492
G1 X179.957 Y56.570 E0.01678
G1 X188.930 Y65.543 E0.39866
G1 X188.930 Y66.077 E0.01678
G1 X179.423 Y56.570 E0.42239
G1 X178.888 Y56.570 E0.01678
G1 X188.930 Y66.612 E0.44613
G1 X188.930 Y67.146 E0.01678
G1 X178.354 Y56.570 E0.46987
G1 X177.820 Y56.570 E0.01678
G1 X188.930 Y67.680 E0.49361
G1 X188.930 Y68.215 E0.01678
G1 X177.285 Y56.570 E0.51734
G1 X176.751 Y56.570 E0.01678
G1 X188.930 Y68.749 E0.54108
G1 X188.930 Y69.283 E0.01678
G1 X176.217 Y56.570 E0.56482
G1 X175.682 Y56.570 E0.01678
G1 X188.930 Y69.818 E0.58856
G1 X188.930 Y70.352 E0.01678
G1 X175.148 Y56.570 E0.61229
G1 X174.614 Y56.570 E0.01678
G1 X188.930 Y70.886 E0.63603
G1 X188.930 Y71.420 E0.01678
G1 X174.080 Y56.570 E0.65977
G1 X173.545 Y56.570 E0.01678
G1 X188.930 Y71.955 E0.68351
G1 X188.930 Y72.489 E0.01678
G1 X173.011 Y56.570 E0.70724
G1 X172.477 Y56.570 E0.01678
G1 X188.930 Y73.023 E0.73098
G1 X188.930 Y73.558 E0.01678
G1 X171.942 Y56.570 E0.75472
G1 X171.408 Y56.570 E0.01678
G1 X188.930 Y74.092 E0.77846
G1 X188.930 Y74.626 E0.01678
G1 X170.874 Y56.570 E0.80219
G1 X170.339 Y56.570 E0.01678
G1 X188.930 Y75.161 E0.82593
M73 Q0 S340
G1 X188.930 Y75.695 E0.01678
G1 X169.805 Y56.570 E0.84967
G1 X169.271 Y56.570 E0.01678
G1 X188.930 Y76.229 E0.87340
G1 X188.930 Y76.763 E0.01678
G1 X168.737 Y56.570 E0.89714
G1 X168.202 Y56.570 E0.01678
G1 X188.930 Y77.298 E0.92088
M73 P0 R337
G1 X188.930 Y77.832 E0.01678
G1 X167.668 Y56.570 E0.94462
G1 X167.134 Y56.570 E0.01678
G1 X188.930 Y78.366 E0.96835
G1 X188.930 Y78.901 E0.01678
G1 X166.599 Y56.570 E0.99209
G1 X166.065 Y56.570 E0.01678
G1 X188.930 Y79.435 E1.01583
G1 X188.930 Y79.969 E0.01678
G1 X165.531 Y56.570 E1.03957
G1 X164.996 Y56.570 E0.01678
G1 X188.930 Y80.504 E1.06330
G1 X188.930 Y81.038 E0.01678
G1 X164.462 Y56.570 E1.08704
G1 X163.928 Y56.570 E0.01678
G1 X188.930 Y81.572 E1.11078
G1 X188.930 Y82.106 E0.01678
G1 X163.394 Y56.570 E1.13452
G1 X162.859 Y56.570 E0.01678
G1 X188.930 Y82.641 E1.15825
G1 X188.930 Y83.175 E0.01678
G1 X162.325 Y56.570 E1.18199
G1 X161.791 Y56.570 E0.01678
G1 X188.930 Y83.709 E1.20573
G1 X188.930 Y84.244 E0.01678
G1 X161.256 Y56.570 E1.22947
G1 X160.722 Y56.570 E0.01678
G1 X188.930 Y84.778 E1.25320
G1 X188.930 Y85.312 E0.01678
G1 X160.188 Y56.570 E1.27694
G1 X159.653 Y56.570 E0.01678
G1 X188.930 Y85.847 E1.30068
G1 X188.930 Y86.381 E0.01678
G1 X159.119 Y56.570 E1.32442
G1 X158.585 Y56.570 E0.01678
G1 X188.930 Y86.915 E1.34815
G1 X188.930 Y87.449 E0.01678
G1 X158.051 Y56.570 E1.37189
G1 X157.516 Y56.570 E0.01678
G1 X188.930 Y87.984 E1.39563
G1 X188.930 Y88.518 E0.01678
G1 X156.982 Y56.570 E1.41937
G1 X156.448 Y56.570 E0.01678
G1 X188.930 Y89.052 E1.44310
G1 X188.930 Y89.587 E0.01678
G1 X155.913 Y56.570 E1.46684
G1 X155.379 Y56.570 E0.01678
G1 X188.930 Y90.121 E1.49058
M73 P1 R337
M73 Q1 S340
G1 X188.930 Y90.655 E0.01678
G1 X154.845 Y56.570 E1.51432
G1 X154.310 Y56.570 E0.01678
G1 X188.930 Y91.190 E1.53805
G1 X188.930 Y91.724 E0.01678
G1 X153.776 Y56.570 E1.56179
M73 Q1 S339
G1 X153.242 Y56.570 E0.01678
G1 X188.930 Y92.258 E1.58553
G1 X188.930 Y92.792 E0.01678
G1 X152.708 Y56.570 E1.60927
M73 P1 R336
G1 X152.173 Y56.570 E0.01678
G1 X188.930 Y93.327 E1.63300
G1 X188.930 Y93.861 E0.01678
G1 X151.639 Y56.570 E1.65674
G1 X151.105 Y56.570 E0.01678
G1 X188.930 Y94.395 E1.68048
G1 X188.930 Y94.930 E0.01678
G1 X150.570 Y56.570 E1.70422
G1 X150.036 Y56.570 E0.01678
G1 X188.930 Y95.464 E1.72795
G1 X188.930 Y95.998 E0.01678
G1 X149.502 Y56.570 E1.75169
G1 X148.967 Y56.570 E0.01678
G1 X188.930 Y96.533 E1.77543
G1 X188.930 Y97.067 E0.01678
G1 X148.433 Y56.570 E1.79917
G1 X147.899 Y56.570 E0.01678
G1 X188.930 Y97.601 E1.82290
G1 X188.930 Y98.135 E0.01678
G1 X147.365 Y56.570 E1.84664
G1 X146.830 Y56.570 E0.01678
G1 X188.930 Y98.670 E1.87038
G1 X188.930 Y99.204 E0.01678
G1 X146.296 Y56.570 E1.89412
G1 X145.762 Y56.570 E0.01678
G1 X188.930 Y99.738 E1.91785
G1 X188.930 Y100.273 E0.01678
G1 X145.227 Y56.570 E1.94159
G1 X144.693 Y56.570 E0.01678
G1 X188.930 Y100.807 E1.96533
G1 X188.930 Y101.341 E0.01678
G1 X144.159 Y56.570 E1.98907
G1 X143.624 Y56.570 E0.01678
G1 X188.930 Y101.876 E2.01280
G1 X188.930 Y102.410 E0.01678
G1 X143.090 Y56.570 E2.03654
G1 X142.556 Y56.570 E0.01678
G1 X188.930 Y102.944 E2.06028
M73 Q1 S338
G1 X188.930 Y103.478 E0.01678
G1 X142.022 Y56.570 E2.08401
M73 P1 R335
G1 X141.487 Y56.570 E0.01678
G1 X188.930 Y104.013 E2.10775
G1 X188.930 Y104.547 E0.01678
G1 X140.953 Y56.570 E2.13149
G1 X140.419 Y56.570 E0.01678
G1 X188.930 Y105.081 E2.15523
G1 X188.930 Y105.616 E0.01678
G1 X139.884 Y56.570 E2.17896
G1 X139.350 Y56.570 E0.01678
G1 X188.930 Y106.150 E2.20270
G1 X188.930 Y106.684 E0.01678
G1 X138.816 Y56.570 E2.22644
G1 X138.281 Y56.570 E0.01678
G1 X188.930 Y107.218 E2.25018
G1 X188.930 Y107.753 E0.01678
G1 X137.747 Y56.570 E2.27391
G1 X137.213 Y56.570 E0.01678
G1 X188.930 Y108.287 E2.29765
G1 X188.930 Y108.821 E0.01678
G1 X136.679 Y56.570 E2.32139
G1 X136.144 Y56.570 E0.01678
G1 X188.930 Y109.356 E2.34513
G1 X188.930 Y109.890 E0.01678
G1 X135.610 Y56.570 E2.36886
G1 X135.076 Y56.570 E0.01678
G1 X188.930 Y110.424 E2.39260
G1 X188.930 Y110.959 E0.01678
G1 X134.541 Y56.570 E2.41634
G1 X134.007 Y56.570 E0.01678
G1 X188.930 Y111.493 E2.44008
M73 Q1 S337
G1 X188.930 Y112.027 E0.01678
G1 X133.473 Y56.570 E2.46381
G1 X132.939 Y56.570 E0.01678
G1 X188.930 Y112.561 E2.48755
M73 P1 R334
G1 X188.930 Y113.096 E0.01678
G1 X132.404 Y56.570 E2.51129
G1 X131.870 Y56.570 E0.01678
G1 X188.930 Y113.630 E2.53503
G1 X188.930 Y114.164 E0.01678
G1 X131.336 Y56.570 E2.55876
G1 X130.801 Y56.570 E0.01678
G1 X188.930 Y114.699 E2.58250
G1 X188.930 Y115.233 E0.01678
G1 X130.267 Y56.570 E2.60624
G1 X129.733 Y56.570 E0.01678
G1 X188.930 Y115.767 E2.62998
G1 X188.930 Y116.302 E0.01678
G1 X129.198 Y56.570 E2.65371
G1 X128.664 Y56.570 E0.01678
G1 X188.930 Y116.836 E2.67745
G1 X188.930 Y117.370 E0.01678
G1 X128.130 Y56.570 E2.70119
G1 X127.596 Y56.570 E0.01678
G1 X188.930 Y117.904 E2.72493
G1 X188.930 Y118.439 E0.01678
G1 X127.061 Y56.570 E2.74866
G1 X126.527 Y56.570 E0.01678
G1 X188.930 Y118.973 E2.77240
G1 X188.930 Y119.507 E0.01678
G1 X125.993 Y56.570 E2.79614
M73 Q1 S336
G1 X125.458 Y56.570 E0.01678
G1 X149.319 Y80.430 E1.06004
M73 P1 R333
G1 X148.784 Y80.430 E0.01678
G1 X124.924 Y56.570 E1.06004
G1 X124.390 Y56.570 E0.01678
G1 X148.250 Y80.430 E1.06004
G1 X147.716 Y80.430 E0.01678
G1 X123.855 Y56.570 E1.06004
G1 X123.321 Y56.570 E0.01678
G1 X147.181 Y80.430 E1.06004
G1 X146.647 Y80.430 E0.01678
G1 X122.787 Y56.570 E1.06004
G1 X122.253 Y56.570 E0.01678
G1 X146.113 Y80.430 E1.06004
M73 P2 R333
G1 X145.578 Y80.430 E0.01678
G1 X121.718 Y56.570 E1.06004
G1 X121.184 Y56.570 E0.01678
G1 X145.044 Y80.430 E1.06004
M73 Q2 S336
G1 X144.510 Y80.430 E0.01678
G1 X120.650 Y56.570 E1.06004
G1 X120.115 Y56.570 E0.01678
G1 X143.976 Y80.430 E1.06004
G1 X143.441 Y80.430 E0.01678
G1 X119.581 Y56.570 E1.06004
G1 X119.047 Y56.570 E0.01678
G1 X142.907 Y80.430 E1.06004
G1 X142.373 Y80.430 E0.01678
G1 X118.512 Y56.570 E1.06004
G1 X117.978 Y56.570 E0.01678
G1 X141.838 Y80.430 E1.06004
G1 X141.304 Y80.430 E0.01678
G1 X117.444 Y56.570 E1.06004
G1 X116.910 Y56.570 E0.01678
G1 X140.770 Y80.430 E1.06004
G1 X140.235 Y80.430 E0.01678
G1 X116.375 Y56.570 E1.06004
G1 X115.841 Y56.570 E0.01678
G1 X139.701 Y80.430 E1.06004
G1 X139.167 Y80.430 E0.01678
G1 X115.307 Y56.570 E1.06004
G1 X114.772 Y56.570 E0.01678
G1 X138.633 Y80.430 E1.06004
G1 X138.098 Y80.430 E0.01678
G1 X114.238 Y56.570 E1.06004
G1 X113.704 Y56.570 E0.01678
G1 X137.564 Y80.430 E1.06004
G1 X137.030 Y80.430 E0.01678
G1 X113.169 Y56.570 E1.06004
G1 X112.635 Y56.570 E0.01678
G1 X136.495 Y80.430 E1.06004
G1 X135.961 Y80.430 E0.01678
G1 X112.101 Y56.570 E1.06004
G1 X111.567 Y56.570 E0.01678
G1 X135.427 Y80.430 E1.06004
G1 X134.892 Y80.430 E0.01678
G1 X111.032 Y56.570 E1.06004
G1 X110.498 Y56.570 E0.01678
G1 X134.358 Y80.430 E1.06004
G1 X133.824 Y80.430 E0.01678
G1 X109.964 Y56.570 E1.06004
G1 X109.429 Y56.570 E0.01678
G1 X133.290 Y80.430 E1.06004
G1 X132.755 Y80.430 E0.01678
G1 X108.895 Y56.570 E1.06004
G1 X108.361 Y56.570 E0.01678
G1 X132.221 Y80.430 E1.06004
M73 Q2 S335
G1 X131.687 Y80.430 E0.01678
G1 X107.826 Y56.570 E1.06004
G1 X107.292 Y56.570 E0.01678
G1 X131.152 Y80.430 E1.06004
G1 X130.618 Y80.430 E0.01678
G1 X106.758 Y56.570 E1.06004
M73 P2 R332
G1 X106.224 Y56.570 E0.01678
G1 X130.084 Y80.430 E1.06004
G1 X129.549 Y80.430 E0.01678
G1 X105.689 Y56.570 E1.06004
G1 X105.155 Y56.570 E0.01678
G1 X129.015 Y80.430 E1.06004
G1 X128.481 Y80.430 E0.01678
G1 X104.621 Y56.570 E1.06004
G1 X104.086 Y56.570 E0.01678
G1 X127.947 Y80.430 E1.06004
G1 X127.412 Y80.430 E0.01678
G1 X103.552 Y56.570 E1.06004
G1 X103.018 Y56.570 E0.01678
G1 X126.878 Y80.430 E1.06004
G1 X126.344 Y80.430 E0.01678
G1 X102.483 Y56.570 E1.06004
G1 X101.949 Y56.570 E0.01678
G1 X125.809 Y80.430 E1.06004
G1 X125.275 Y80.430 E0.01678
G1 X101.415 Y56.570 E1.06004
G1 X100.881 Y56.570 E0.01678
G1 X124.741 Y80.430 E1.06004
G1 X124.206 Y80.430 E0.01678
G1 X100.346 Y56.570 E1.06004
G1 X99.812 Y56.570 E0.01678
G1 X123.672 Y80.430 E1.06004
G1 X123.138 Y80.430 E0.01678
G1 X99.278 Y56.570 E1.06004
G1 X98.743 Y56.570 E0.01678
G1 X122.604 Y80.430 E1.06004
G1 X122.069 Y80.430 E0.01678
G1 X98.209 Y56.570 E1.06004
G1 X97.675 Y56.570 E0.01678
G1 X121.535 Y80.430 E1.06004
G1 X121.001 Y80.430 E0.01678
G1 X97.140 Y56.570 E1.06004
G1 X96.606 Y56.570 E0.01678
G1 X120.466 Y80.430 E1.06004
G1 X119.932 Y80.430 E0.01678
G1 X96.072 Y56.570 E1.06004
G1 X95.538 Y56.570 E0.01678
G1 X119.398 Y80.430 E1.06004
G1 X118.863 Y80.430 E0.01678
